static/assets/images/tokens/dai+.svg

<svg width="256" height="256" viewBox="0 0 256 256" fill="none" xmlns="http://www.w3.org/2000/svg">
<path d="M127.999 256C198.692 256 256 198.693 256 128C256 57.3076 198.692 0 127.999 0C57.3075 0 0 57.3076 0 128C0 198.693 57.3075 256 127.999 256Z" fill="#F7BB38"/>
<path d="M194.947 192.145C138.19 203.611 82.7396 166.825 71.2046 110.398C65.4345 83.0564 71.3603 55.748 85.4579 33.6954C42.7124 53.3408 17.4325 100.361 27.2365 148.645C38.7714 205.072 94.2216 241.858 150.978 230.391C180.235 224.661 203.676 207.285 218.946 184.074C211.335 187.541 203.723 190.426 194.947 192.145Z" fill="url(#paint0_linear_4193_3611)"/>
<path fill-rule="evenodd" clip-rule="evenodd" d="M226.535 174.146L233.252 178.918C234.765 179.993 234.608 182.286 232.961 183.144L211.217 194.474C209.489 195.373 207.446 194.026 207.592 192.085L209.507 166.67C209.652 164.743 211.846 163.712 213.42 164.832L219.444 169.11C234.82 134.166 229.137 91.9338 201.617 62.0787C164.843 22.1817 102.88 19.367 62.6464 55.5445C62.1365 56.003 61.3475 55.9753 60.8828 55.4711L56.7823 51.0227C56.3175 50.5184 56.3532 49.7286 56.8626 49.2696C100.561 9.89821 167.922 12.9328 207.893 56.2952C238.214 89.1896 244.118 135.9 226.535 174.146Z" fill="white"/>
<path fill-rule="evenodd" clip-rule="evenodd" d="M32.5568 82.1101L25.8398 77.339C24.3266 76.2643 24.4843 73.9698 26.1303 73.1122L47.8756 61.7827C49.6023 60.8832 51.6455 62.2301 51.4992 64.1717L49.5849 89.5867C49.4397 91.5137 47.246 92.5438 45.6706 91.4247L39.6477 87.1467C24.2716 122.091 29.9542 164.323 57.4736 194.177C94.2495 234.075 156.212 236.89 196.445 200.712C196.955 200.254 197.744 200.281 198.209 200.785L202.309 205.234C202.775 205.738 202.739 206.528 202.23 206.987C158.53 246.359 91.1694 243.324 51.1993 199.961C20.878 167.067 14.9739 120.356 32.5568 82.1101Z" fill="white"/>
<path d="M174.302 137.85C175.082 137.85 175.45 137.85 175.507 136.833C175.806 133.131 175.806 129.407 175.507 125.701C175.507 124.981 175.147 124.684 174.362 124.684H101.511C100.609 124.684 100.367 124.981 100.367 125.822V136.475C100.367 137.85 100.367 137.85 101.81 137.85H174.302ZM171.419 112.233C171.523 111.962 171.523 111.664 171.419 111.397C170.807 110.074 170.083 108.811 169.242 107.626C167.977 105.6 166.485 103.734 164.786 102.058C163.984 101.045 163.056 100.136 162.016 99.3642C156.805 94.9553 150.61 91.8351 143.952 90.2663C140.592 89.5164 137.158 89.1587 133.716 89.1889H101.385C100.484 89.1889 100.362 89.5466 100.362 90.3267V111.574C100.362 112.47 100.362 112.711 101.507 112.711H170.985C170.985 112.711 171.588 112.591 171.709 112.233H171.414H171.419ZM171.419 150.301C170.396 150.189 169.364 150.189 168.341 150.301H101.572C100.67 150.301 100.367 150.301 100.367 151.499V172.272C100.367 173.229 100.367 173.47 101.572 173.47H132.399C133.873 173.582 135.346 173.479 136.79 173.173C141.264 172.854 145.664 171.888 149.86 170.298C151.386 169.772 152.86 169.087 154.252 168.264H154.672C161.899 164.527 167.769 158.657 171.471 151.452C171.471 151.452 171.891 150.547 171.419 150.309V150.301ZM88.2674 184.24V151.141C88.2674 150.361 88.2674 150.245 87.305 150.245H74.2391C73.5151 150.245 73.216 150.245 73.216 149.288V137.915H87.1836C87.964 137.915 88.2674 137.915 88.2674 136.898V125.645C88.2674 124.925 88.2674 124.748 87.305 124.748H74.2391C73.5151 124.748 73.216 124.748 73.216 123.792V113.259C73.216 112.599 73.216 112.423 74.1784 112.423H87.1229C88.0247 112.423 88.2674 112.423 88.2674 111.285V79.0223C88.2674 78.0655 88.2674 77.8242 89.4726 77.8242H134.627C137.904 77.9534 141.16 78.3111 144.381 78.9016C151.018 80.1212 157.395 82.4787 163.225 85.8446C167.092 88.1072 170.651 90.8395 173.82 93.9856C176.205 96.4465 178.355 99.1099 180.262 101.946C182.157 104.82 183.73 107.893 184.966 111.104C185.118 111.94 185.924 112.505 186.765 112.362H197.542C198.925 112.362 198.925 112.362 198.985 113.681V123.499C198.985 124.455 198.626 124.697 197.659 124.697H189.349C188.508 124.697 188.265 124.697 188.326 125.774C188.655 129.42 188.655 133.079 188.326 136.725C188.326 137.742 188.326 137.863 189.474 137.863H198.981C199.402 138.402 198.981 138.94 198.981 139.483C199.042 140.177 199.042 140.88 198.981 141.574V148.818C198.981 149.835 198.682 150.137 197.776 150.137H186.396C185.603 149.986 184.831 150.49 184.649 151.275C181.94 158.278 177.605 164.557 172.004 169.591C169.958 171.423 167.808 173.147 165.562 174.737C163.152 176.116 160.806 177.551 158.335 178.689C153.788 180.723 149.019 182.223 144.125 183.175C139.478 184.003 134.766 184.378 130.036 184.313H88.2501V184.253L88.2674 184.24Z" fill="#FEFEFD"/>
<defs>
<linearGradient id="paint0_linear_4193_3611" x1="-7.36324" y1="284.996" x2="144.406" y2="104.21" gradientUnits="userSpaceOnUse">
<stop offset="0.0729167" stop-color="#FFD923"/>
<stop offset="0.4775" stop-color="#FFEDC7"/>
<stop offset="1" stop-color="#F7BB38"/>
</linearGradient>
</defs>
</svg>

<svg xmlns="http://www.w3.org/2000/svg" fill="none" viewBox="0 0 256 256"><path fill="#F7BB38" d="M127.999 256C198.692 256 256 198.693 256 128 256 57.308 198.692 0 127.999 0 57.308 0 0 57.308 0 128s57.308 128 127.999 128"/><path fill="url(#paint0_linear_4193_3611)" d="M194.947 192.145c-56.757 11.466-112.207-25.32-123.742-81.747-5.77-27.342.155-54.65 14.253-76.703-42.746 19.646-68.025 66.666-58.221 114.95 11.534 56.427 66.985 93.213 123.741 81.746 29.257-5.73 52.698-23.106 67.968-46.317-7.611 3.467-15.223 6.352-23.999 8.071"/><path fill="#fff" fill-rule="evenodd" d="m226.535 174.146 6.717 4.772c1.513 1.075 1.356 3.368-.291 4.226l-21.744 11.33c-1.728.899-3.771-.448-3.625-2.389l1.915-25.415c.145-1.927 2.339-2.958 3.913-1.838l6.024 4.278c15.376-34.944 9.693-77.176-17.827-107.031-36.774-39.897-98.737-42.712-138.97-6.535-.51.459-1.3.431-1.764-.073l-4.1-4.448a1.236 1.236 0 0 1 .08-1.753c43.698-39.372 111.059-36.337 151.03 7.025 30.321 32.895 36.225 79.605 18.642 117.851M32.557 82.11l-6.717-4.77c-1.513-1.075-1.356-3.37.29-4.227l21.746-11.33c1.726-.899 3.77.448 3.623 2.39l-1.914 25.415c-.145 1.927-2.339 2.957-3.914 1.838l-6.023-4.278c-15.376 34.944-9.694 77.176 17.826 107.03 36.776 39.898 98.738 42.713 138.971 6.535a1.26 1.26 0 0 1 1.764.073l4.1 4.449c.466.504.43 1.294-.079 1.753-43.7 39.372-111.06 36.337-151.03-7.026-30.322-32.894-36.226-79.605-18.643-117.85" clip-rule="evenodd"/><path fill="#FEFEFD" d="M174.302 137.85c.78 0 1.148 0 1.205-1.017a69 69 0 0 0 0-11.132c0-.72-.36-1.017-1.145-1.017h-72.851c-.902 0-1.144.297-1.144 1.138v10.653c0 1.375 0 1.375 1.443 1.375zm-2.883-25.617a1.16 1.16 0 0 0 0-.836 23.7 23.7 0 0 0-2.177-3.771 30.5 30.5 0 0 0-4.456-5.568 14.8 14.8 0 0 0-2.77-2.694 43.4 43.4 0 0 0-18.064-9.098 45.2 45.2 0 0 0-10.236-1.077h-32.331c-.901 0-1.023.358-1.023 1.138v21.247c0 .896 0 1.137 1.145 1.137h69.478s.603-.12.724-.478h-.295zm0 38.068a14 14 0 0 0-3.078 0h-66.769c-.902 0-1.205 0-1.205 1.198v20.773c0 .957 0 1.198 1.205 1.198h30.827c1.474.112 2.947.009 4.391-.297a46.1 46.1 0 0 0 13.07-2.875c1.526-.526 3-1.211 4.392-2.034h.42a39 39 0 0 0 16.799-16.812s.42-.905-.052-1.143zM88.267 184.24v-33.099c0-.78 0-.896-.962-.896H74.239c-.724 0-1.023 0-1.023-.957v-11.373h13.968c.78 0 1.083 0 1.083-1.017v-11.253c0-.72 0-.897-.962-.897H74.239c-.724 0-1.023 0-1.023-.956v-10.533c0-.66 0-.836.962-.836h12.945c.902 0 1.144 0 1.144-1.138V79.022c0-.957 0-1.198 1.206-1.198h45.154a69 69 0 0 1 9.754 1.078 59 59 0 0 1 18.844 6.943 53 53 0 0 1 10.595 8.14 57.7 57.7 0 0 1 6.442 7.961 48 48 0 0 1 4.704 9.158 1.566 1.566 0 0 0 1.799 1.258h10.777c1.383 0 1.383 0 1.443 1.319v9.818c0 .956-.359 1.198-1.326 1.198h-8.31c-.841 0-1.084 0-1.023 1.077a61 61 0 0 1 0 10.951c0 1.017 0 1.138 1.148 1.138h9.507c.421.539 0 1.077 0 1.62.061.694.061 1.397 0 2.091v7.244c0 1.017-.299 1.319-1.205 1.319h-11.38a1.506 1.506 0 0 0-1.747 1.138 47.85 47.85 0 0 1-12.645 18.316 72 72 0 0 1-6.442 5.146c-2.41 1.379-4.756 2.814-7.227 3.952a65.4 65.4 0 0 1-14.21 4.486 74.4 74.4 0 0 1-14.089 1.138H88.25v-.06z"/><defs><linearGradient id="paint0_linear_4193_3611" x1="-7.363" x2="144.406" y1="284.996" y2="104.21" gradientUnits="userSpaceOnUse"><stop offset=".073" stop-color="#FFD923"/><stop offset=".477" stop-color="#FFEDC7"/><stop offset="1" stop-color="#F7BB38"/></linearGradient></defs></svg>
